X:46
T:Maggie in the Woods
C:Traditional
M:2/4
R:Polka
L:1/8
K:G
GD G>A | Be ef/e/ | dB AG/A/ | BA A2 |
GD G>A | Be ef/e/ | dB AB/A/ | G2 G2 :|
|: gf ed | ef g2 | dB AG/A/ | BA A2 |
gf ed | ef g2 | dB AB/A/ | G2 G2 :|

